resources/dark/button.svg

<?xml version="1.0" encoding="UTF-8" standalone="no"?>
<svg
   xmlns:dc="http://purl.org/dc/elements/1.1/"
   xmlns:cc="http://creativecommons.org/ns#"
   xmlns:rdf="http://www.w3.org/1999/02/22-rdf-syntax-ns#"
   xmlns:svg="http://www.w3.org/2000/svg"
   xmlns="http://www.w3.org/2000/svg"
   fill="none"
   height="16"
   width="16"
   version="1.1"
   id="svg8">
  <metadata
     id="metadata14">
    <rdf:RDF>
      <cc:Work
         rdf:about="">
        <dc:format>image/svg+xml</dc:format>
        <dc:type
           rdf:resource="http://purl.org/dc/dcmitype/StillImage" />
        <dc:title></dc:title>
      </cc:Work>
    </rdf:RDF>
  </metadata>
  <defs
     id="defs12" />
  <path
     d="m 2.202,6.678 c -0.388,0.34 -0.42,0.704 -0.42,1.3 0.235,1.64 3.04,2.669 5.85,2.679 2.637582,0.0094 5.31969,-0.876999 5.880682,-2.3181157 C 13.754627,7.7699577 13.376556,7.1725349 13.202,6.798 c -0.3,-0.2 -0.527,-0.24 -0.718,0.025 0,1.242 -2.145,2.248 -4.79,2.249 C 5.047,9.072 2.901,8.065 2.9,6.823 2.901,6.767 2.798,6.622 2.7,6.541 2.542,6.451 2.314,6.571 2.202,6.678 Z"
     id="path2"
     style="fill:#c5c5c5;fill-opacity:0.25" />
  <path
     style="line-height:normal;font-variant-ligatures:normal;font-variant-position:normal;font-variant-caps:normal;font-variant-numeric:normal;font-variant-alternates:normal;font-feature-settings:normal;text-indent:0;text-align:start;text-decoration:none;text-decoration-line:none;text-decoration-style:solid;text-decoration-color:#000000;text-transform:none;text-orientation:mixed;white-space:normal;shape-padding:0;isolation:auto;mix-blend-mode:normal;solid-color:#000000;solid-opacity:1;fill:#c5c5c5"
     d="M 4.145,1.926 C 3.303,2.326 2.641,2.916 2.508,3.682 2.465,3.83 2.49,3.95 2.478,4.105 v 1.5 C 1.575,6.141 0.915,6.844 0.823,7.711 0.796,7.841 0.813,7.982 0.81,8.125 l 0.0035,2.3955 C 0.817,10.559 0.827,10.635 0.839,10.709 c 0.155,0.972 1,1.746 2.125,2.281 1.246,0.593 2.904,0.94 4.734,0.94 1.83,0 3.493,-0.347 4.74,-0.94 1.126,-0.535 1.972,-1.31 2.126,-2.283 0.033,-0.147 0.019,-0.251 0.029,-0.398 V 8.082 C 14.584656,7.927375 14.578,7.826 14.571,7.705 14.489,6.953 13.995,6.32 13.271,5.816 13.151,5.738 13.034,5.659 12.919,5.58 V 4.086 C 12.916,3.95 12.904,3.85 12.897,3.734 12.787,2.944 12.116,2.334 11.255,1.926 10.311,1.476 9.066,1.219 7.6975,1.219 6.329,1.219 5.087,1.477 4.145,1.926 Z m 6.677,0.903 c 0.68,0.322 1.015,0.7 1.074,1.028 0.01,0.133 0.015,0.313 0.019,0.522 0.012,0.662 0.003,1.624 -0.0015,2.0530386 C 11.909042,6.8610773 11.892294,6.9592225 11.866,7.055 11.836,7.126 11.791,7.199 11.734,7.273 11.105,7.964 10.241,8.16 9.437,8.385 8.3298747,8.6034817 7.1912826,8.609251 6.1681413,8.4401255 5.145,8.271 4.549,7.933 4.1607839,7.6767179 3.7725678,7.4204359 3.652692,7.2791658 3.563,7.119 3.488,7.019 3.488,6.895 3.48,6.789 V 4.148 C 3.482,3.971 3.484,4.023 3.49,3.868 3.547,3.542 3.884,3.156 4.574,2.828 5.34,2.464 6.458,2.218 7.6975,2.2185 8.937,2.219 10.057,2.463 10.822,2.829 Z M 2.48,6.809 c -0.002,0.09 0.019,0.184 0.028,0.27 0.128,0.77 0.791,1.366 1.638,1.769 0.943,0.448 2.183,0.705 3.551,0.705 1.368,0 2.613,-0.257 3.557,-0.705 0.853,-0.406 1.522,-1.007 1.642,-1.787 0.02,-0.095 0.015,-0.162 0.022,-0.252 0.355,0.299 0.574,0.61 0.638,0.978 0.044,0.176 0.02,0.277 0.036,0.49 v 1.961 c 0.017,0.204 -0.015,0.188 -0.031,0.383 -0.122,0.495 -0.631,1.028 -1.553,1.467 C 10.94,12.596 9.399,12.93 7.698,12.93 5.995,12.93 4.461,12.596 3.393,12.088 2.502,11.664 1.995,11.153 1.852,10.672 1.84,10.608 1.822,10.545 1.809,10.482 V 8.266 C 1.793,7.966 1.791,7.713 1.969,7.414 2.079,7.199 2.251,7.001 2.48,6.809 Z"
     id="path4" />
  <path
     style="fill:#c5c5c5;fill-opacity:0.25"
     d="M 4.574,2.829 C 3.919,3.139 3.59,3.502 3.51,3.816 3.4977738,3.8688487 3.4911006,3.9219009 3.49,3.975 3.4913052,4.9655735 5.3902928,5.7682337 7.732,5.768 9.80766,5.7669185 11.576471,5.1304851 11.912,4.264 11.90925,4.1282441 11.903915,3.9925529 11.896,3.857 11.836,3.529 11.501,3.151 10.822,2.828 10.057,2.463 8.937,2.218 7.6975,2.2185 6.458,2.219 5.34,2.464 4.574,2.829 Z"
     id="path6" />
</svg>

<svg xmlns="http://www.w3.org/2000/svg" fill="none" height="16" width="16">
   <path d="M2.202 6.678c-.388.34-.42.704-.42 1.3.235 1.64 3.04 2.669 5.85 2.679 2.795.01 5.64-.986 5.958-2.582l.002-.027c.043-.616-.048-.946-.39-1.25-.3-.2-.527-.24-.718.025 0 1.242-2.145 2.248-4.79 2.249-2.647 0-4.793-1.007-4.794-2.249.001-.056-.102-.201-.2-.282-.158-.09-.386.03-.498.137z" fill="#c5c5c5" fill-opacity=".250"/>
   <path style="line-height:normal;font-variant-ligatures:normal;font-variant-position:normal;font-variant-caps:normal;font-variant-numeric:normal;font-variant-alternates:normal;font-feature-settings:normal;text-indent:0;text-align:start;text-decoration-line:none;text-decoration-style:solid;text-decoration-color:#000;text-transform:none;text-orientation:mixed;white-space:normal;shape-padding:0;isolation:auto;mix-blend-mode:normal;solid-color:#000;solid-opacity:1" d="M7.697 1.219c-1.368 0-2.61.258-3.552.707-.842.4-1.504.99-1.637 1.756-.043.148-.018.268-.03.423v1.5C1.575 6.141.915 6.844.823 7.711c-.027.13-.01.271-.013.414v2.357h.003c.004.077.014.153.026.227.155.972 1 1.746 2.125 2.281 1.246.593 2.904.94 4.734.94s3.493-.347 4.74-.94c1.126-.535 1.972-1.31 2.126-2.283.033-.147.019-.251.029-.398V8.082c.019-.139-.015-.256-.022-.377-.082-.752-.576-1.385-1.3-1.889-.12-.078-.237-.157-.352-.236V4.086c-.003-.136-.015-.236-.022-.352-.11-.79-.781-1.4-1.642-1.808-.944-.45-2.189-.707-3.557-.707zm0 1c1.24 0 2.36.244 3.125.61.68.322 1.015.7 1.074 1.028.01.133.015.313.019.522.012.662.003 1.624.003 2.355l-.002.028a1.505 1.505 0 01-.05.293c-.03.071-.075.144-.132.218-.629.691-1.493.887-2.297 1.112a8.893 8.893 0 01-3.355.017c-.04-.007-.084-.01-.123-.017h-.002c-.812-.114-1.408-.452-2.039-.85h-.002a1.421 1.421 0 01-.353-.416c-.075-.1-.075-.224-.083-.33V4.148c.002-.177.004-.125.01-.28.057-.326.394-.712 1.084-1.04.766-.364 1.884-.61 3.123-.61zM2.48 6.809c-.002.09.019.184.028.27.128.77.791 1.366 1.638 1.769.943.448 2.183.705 3.551.705 1.368 0 2.613-.257 3.557-.705.853-.406 1.522-1.007 1.642-1.787.02-.095.015-.162.022-.252.355.299.574.61.638.978.044.176.02.277.036.49v1.961c.017.204-.015.188-.031.383-.122.495-.631 1.028-1.553 1.467-1.068.508-2.609.842-4.31.842-1.703 0-3.237-.334-4.305-.842-.891-.424-1.398-.935-1.541-1.416-.012-.064-.03-.127-.043-.19V8.266c-.016-.3-.018-.553.16-.852.11-.215.282-.413.511-.605z" fill="#c5c5c5"/>
   <path d="M7.697 2.219c-1.239 0-2.357.245-3.123.61-.655.31-.984.673-1.064.987a4.241 1.794 0 00-.02.159 4.241 1.794 0 004.242 1.793 4.241 1.794 0 004.18-1.504 10.7 10.7 0 00-.016-.407c-.06-.328-.395-.706-1.074-1.029-.765-.365-1.885-.61-3.125-.61z" fill="#c5c5c5" fill-opacity=".250"/>
</svg>
